!!!COM: Wacław z Szamotuł
!!!CDT: ~1524–~1560
!!!OTL: Już się zmierzka
!!!TXO: Polish
!!!ODT:
!!!voices: 4
!!!pag:
!!!EFL:
!!!YEM: Creative Commons CC/BY/NC/SA 4.0
!!!ENC: Marcin Konik
!!!END: 2014-10-14
!!!EED: Marcin Konik
!!!EEV:
!!!ONB: Encoded in vim by Marcin Konik
!!!CharacterEncoding: utf-8
!!!RDF**kern: l=long note in original notation
!!!RDF**kern: i=editorial accidental
!!!RDF**kern: > = above
!!!RDF**kern < = below
!!muse2ps: z14jc180F
!!title: @{CDT}, @{OTL}, ed. @{ENC}
**kern	**kern	**kern	**kern
*part4	*part3	*part2	*part1
*staff4	*staff3	*staff2	*staff1
*clefF4	*clefGv2	*clefGv2	*clefG2
*k[]	*k[]	*k[]	*k[]
*M2/2	*M2/2	*M2/2	*M2/2
*met(C|)	*met(C|)	*met(C|)	*met(C|)
=1-	=1-	=1-	=1-
4.AA	1A	8AL	1a
.	.	8B	.
.	.	8c	.
8BB	.	8dJ	.
4C	.	4e	.
[4D	.	[4f	.
=2	=2	=2	=2
8DL]	2F	8fL]	2a
8EJ	.	8eJ	.
4F	.	2d	.
2E	2G	.	2g
.	.	4c#	.
=3	=3	=3	=3
4D	2A	4d	4f
4.F	.	4c	4a
.	2A	2f	4.cc
8G	.	.	.
[4A	.	.	.
.	.	.	8b
=4	=4	=4	=4
4A]	2c	1e	8aL
.	.	.	8g#J
4AA	.	.	2a
2E	2B	.	.
.	.	.	4g#
=5	=5	=5	=5
2AA	1A	2c	2a
4AA	.	2e	4a
[4A	.	.	[4cc
=6	=6	=6	=6
4A]	1c	1e	4cc]
8GL	.	.	8bL
8FJ	.	.	8aJ
2E	.	.	2g
=7	=7	=7	=7
2D	2d	2f	4f
.	.	.	2a
8AAL	2c	[2e	.
8BB	.	.	.
8C	.	.	8gL
8DJ	.	.	8fJ
=8	=8	=8	=8
4E	2B	2e]	2g
4E	.	.	.
4.F	2A	8cL	4f
.	.	8B	.
.	.	8A	[4a
8E	.	8GJ	.
=9	=9	=9	=9
4D	2A	4F	8aL]
.	.	.	8bJ
4C	.	4E	4cc
2BB	2G#	2D	2dd
=10	=10	=10	=10
1AA	1A	2E	1cc
.	.	2e	.
=11	=11	=11	=11
2A	1A	2c	2r
2F	.	[2A	2a
=12	=12	=12	=12
2D	2d	2A]	2f
2G	2B	2B	2d
=13	=13	=13	=13
4C	2c	2G	2g
4.C	.	.	.
.	2e	2g	4c
8D	.	.	.
4E	.	.	[4cc
=14	=14	=14	=14
4F	2d	4a	4cc]
4G	.	8gL	4b
.	.	8fJ	.
2A	2c	2e	2a
=15	=15	=15	=15
2D	1d	2f	2a
2D	.	4r	4d
.	.	4F	[4dd
=16	=16	=16	=16
4GG	1d	2G	8ddL]
.	.	.	8ccJ
2G	.	.	4b
.	.	4.A	2a
4F	.	.	.
.	.	8B	.
=17	=17	=17	=17
2E	2G	4c	8gL
.	.	.	8f
.	.	4B	8e
.	.	.	8dJ
2F	2A	4A	4c
.	.	4a	4cc
=18	=18	=18	=18
2G	2B	8gL	8bL
.	.	8f	8a
.	.	8e	8g
.	.	8dJ	8fJ
2A	2c	4.c	4.e
.	.	16BLL	8f
.	.	16AJJ	.
=19	=19	=19	=19
4G	2d	4B	4g
4F	.	4A	2a
2E	2B	2e	.
.	.	.	4g#
=20	=20	=20	=20
1AA	1A	1c	1a
=21	=21	=21	=21
1AA	1A	1c	1e
=22	=22	=22	=22
2C	2G	2c	2e
2D	2F	4A	2f
.	.	4d	.
=23	=23	=23	=23
2E	2G	4B	2e
.	.	4.c	.
2AA	2E	.	2c
.	.	8BL	.
.	.	8A	.
.	.	8GJ	.
=24	=24	=24	=24
2D	2F	2A	2d
2GG	2G	2B	2d
=25	=25	=25	=25
1AA	1E	1A	4c
.	.	.	4.cc
.	.	.	8bL
.	.	.	8a
.	.	.	8gJ
=26	=26	=26	=26
4r	1D	2d	4f
4.A	.	.	4d
.	.	4d	[2f
8GL	.	.	.
8F	.	[4A	.
8EJ	.	.	.
=27	=27	=27	=27
4D	2F	4A]	4f]
4D	.	4B	8eL
.	.	.	8dJ
2C	2G	4c	2e
.	.	[4e	.
=28	=28	=28	=28
2AA	2A	8eL]	4c
.	.	8d	.
.	.	8c	4e
.	.	8BJ	.
2D	2F	2A	4d
.	.	.	4f
=29	=29	=29	=29
2GG	2G	2B-	4e
.	.	.	2d
2AA	2E	2A	.
.	.	.	4c#
=30	=30	=30	=30
1D	1D	1A	1d
==	==	==	==
*-	*-	*-	*-
